src/components/ProtocolIcon/fantom.svg

<svg width="16" height="16" viewBox="0 0 16 16" fill="none" xmlns="http://www.w3.org/2000/svg">
<path d="M7.30915 0.153262C7.52238 0.0523369 7.7552 0 7.99094 0C8.22668 0 8.45951 0.0523369 8.67273 0.153262V0.153262L12.6248 2.2385C12.7244 2.28321 12.8115 2.3518 12.8786 2.43824C12.9456 2.52467 12.9904 2.62631 13.0091 2.73422H13.0129V13.216C13.0036 13.3338 12.9625 13.4468 12.8942 13.543C12.8258 13.6392 12.7327 13.7149 12.6248 13.7621V13.7621L8.67353 15.8467C8.4603 15.9477 8.22748 16 7.99174 16C7.756 16 7.52317 15.9477 7.30995 15.8467V15.8467L3.35867 13.7621C3.25199 13.7144 3.16028 13.6384 3.09337 13.5423C3.02647 13.4461 2.98691 13.3336 2.97894 13.2166C2.97894 13.1987 2.97894 13.1835 2.97894 13.1704V2.73422C2.99505 2.626 3.03837 2.5237 3.10481 2.43696C3.17125 2.35022 3.25862 2.28192 3.35867 2.2385L7.30915 0.153262ZM12.3907 8.58205L8.67353 10.5438C8.4603 10.6447 8.22748 10.6971 7.99174 10.6971C7.756 10.6971 7.52317 10.6447 7.30995 10.5438L3.59992 8.58644V13.1953L7.30995 15.1425C7.49372 15.2542 7.69577 15.3323 7.90672 15.3731L7.99184 15.3785C8.2235 15.3555 8.44715 15.281 8.64655 15.1604V15.1604L12.3909 13.1779L12.3907 8.58205ZM2.33633 12.9881C2.31782 13.2788 2.36531 13.57 2.47521 13.8396C2.56952 14.012 2.70872 14.1556 2.87795 14.2548L2.89006 14.263C2.93628 14.2941 2.98727 14.3267 3.04877 14.3652L3.12178 14.41L3.34617 14.5452L3.02536 15.0766L2.77419 14.9252L2.73193 14.8993C2.65932 14.8545 2.59901 14.8161 2.54286 14.7782C1.94271 14.3739 1.71892 13.933 1.71436 13.016V12.9881H2.33633ZM7.67996 5.77286C7.65268 5.78216 7.62615 5.79355 7.6006 5.80691L3.64912 7.89215L3.63722 7.89873L3.63385 7.90072L3.64 7.9043L3.64892 7.90928L7.6002 9.99452C7.62575 10.0079 7.65228 10.0193 7.67956 10.0286L7.67996 5.77286ZM8.30352 5.77286V10.0282C8.3308 10.0189 8.35733 10.0075 8.38288 9.99412V9.99412L12.3342 7.90888L12.3461 7.90231L12.3494 7.90032L12.3433 7.89673L12.3343 7.89175L8.38307 5.80671C8.35745 5.79341 8.33086 5.78209 8.30352 5.77286V5.77286ZM12.3905 3.4781L8.84653 5.34844L12.3909 7.21878L12.3905 3.4781ZM3.60032 3.48248V7.2144L7.13635 5.34844L3.60032 3.48248ZM8.38307 0.702753C8.25953 0.649113 8.12634 0.62144 7.99174 0.62144C7.85713 0.62144 7.72395 0.649113 7.6004 0.702753V0.702753L3.64912 2.78819L3.63722 2.79477L3.63385 2.79676L3.64 2.80034L3.64892 2.80532L7.6002 4.89056C7.72375 4.9442 7.85693 4.97188 7.99154 4.97188C8.12615 4.97188 8.25933 4.9442 8.38288 4.89056L12.3342 2.80532L12.3461 2.79875L12.3494 2.79676L12.3433 2.79317L12.3343 2.78819L8.38307 0.702753ZM12.9748 0.931393L13.2259 1.08296L13.2682 1.10885C13.3408 1.15366 13.4011 1.1921 13.4573 1.22994C14.0574 1.63424 14.2814 2.07519 14.2858 2.99214V3.02002H13.6638C13.6823 2.72932 13.6348 2.43819 13.5249 2.1686C13.4307 1.99582 13.2915 1.85201 13.1222 1.75254L13.1101 1.74438C13.0639 1.71331 13.0129 1.68065 12.9514 1.64221L12.8784 1.5974L12.654 1.46216L12.9748 0.931393Z" fill="#1969FF"/>
</svg>

<svg xmlns="http://www.w3.org/2000/svg" width="16" height="16" fill="none"><path fill="#1969FF" d="M7.31.153a1.6 1.6 0 0 1 1.363 0l3.952 2.086a.67.67 0 0 1 .384.495h.004v10.482a.65.65 0 0 1-.388.546l-3.951 2.085a1.6 1.6 0 0 1-1.364 0l-3.951-2.085a.64.64 0 0 1-.38-.545V2.734a.65.65 0 0 1 .38-.495zm5.08 8.43-3.716 1.96a1.6 1.6 0 0 1-1.364 0L3.6 8.587v4.61l3.71 1.947c.184.111.386.19.597.23l.085.006c.231-.024.455-.098.655-.219l3.744-1.982zM2.337 12.987c-.018.29.03.582.14.852.094.172.233.316.402.415l.012.008q.067.046.159.102l.073.045.224.135-.32.532-.252-.152-.042-.026a6 6 0 0 1-.19-.12c-.6-.405-.823-.846-.828-1.763v-.028zM7.68 5.773a1 1 0 0 0-.08.034L3.65 7.892l-.013.007-.003.002.006.003.009.005L7.6 9.995a1 1 0 0 0 .08.034zm.624 0v4.255a1 1 0 0 0 .079-.034l3.951-2.085.012-.007.003-.002-.006-.003-.009-.005-3.95-2.085a1 1 0 0 0-.08-.034m4.086-2.295-3.543 1.87 3.544 1.87zm-8.79.004v3.732l3.536-1.866zM8.383.702a.98.98 0 0 0-.783 0L3.65 2.789l-.013.007-.003.002.006.003.009.005L7.6 4.891a.98.98 0 0 0 .783 0l3.951-2.086.012-.006.003-.002-.006-.004-.009-.005zm4.592.23.25.151.043.026.19.12c.6.405.823.846.828 1.763v.028h-.622a1.9 1.9 0 0 0-.14-.851 1.1 1.1 0 0 0-.402-.416l-.012-.009-.159-.102-.073-.045-.224-.135z"/></svg>
